**harm	**harte	**silbe	**rhyme	**timestamp	**phrase	**leadinstrument	**kern
*M4/4	*M4/4	*	*	*	*	*	*
*	*	*	*	*	*	*	*
*	*	*	*	*	*	*	*
*E:	*E:	*	*	*	*	*	*E:
*	*	*	*	*	*	*	*
*	*	*	*	*	*	*	*
1r;	N	.	.	0	.	r	1r;
=1	=1	=1	=1	=1	=1	=1	=1
*>Letter>A2	*>Letter>A2	*>Letter>A2	*>Letter>A2	*>Letter>A2	*>Letter>A2	*>Letter>A2	*>Letter>A2
*>Label>Intro	*>Label>Intro	*>Label>Intro	*>Label>Intro	*>Label>Intro	*>Label>Intro	*>Label>Intro	*>Label>Intro
1I	E:maj	.	.	0.395	newline	guitar	1E 1g# 1b
=2	=2	=2	=2	=2	=2	=2	=2
2ii7	F#:min7	.	.	3.39	.	guitar	1F# 1a 1cc# 1ee
4IV	A:maj	.	.	4.887	.	guitar	4A 4cc# 4ee
4V	B:sus4(b7)	.	.	5.636	.	guitar	4B 4dd# 4ff#
=3	=3	=3	=3	=3	=3	=3	=3
1I	E:maj	.	.	6.385	.	guitar	1E 1g# 1b
=4	=4	=4	=4	=4	=4	=4	=4
2ii7	F#:min7	.	.	9.38	.	guitar	2F# 2a 2cc# 2ee
4IV	A:maj	.	.	10.877	.	guitar	4A 4cc# 4ee
4V	B:sus4(b7)	He	.	11.626	.	guitar	4B 4dd# 4ff#
.	.	was	.	.	.	.	.
.	.	born	.	.	.	.	.
=5	=5	=5	=5	=5	=5	=5	=5
*>Letter>A	*>Letter>A	*>Letter>A	*>Letter>A	*>Letter>A	*>Letter>A	*>Letter>A	*>Letter>A
*>Label>Verse	*>Label>Verse	*>Label>Verse	*>Label>Verse	*>Label>Verse	*>Label>Verse	*>Label>Verse	*>Label>Verse
1I	E:maj	_	.	12.375	newline	voice	1E 1g# 1b
.	.	in	.	.	.	.	.
.	.	the	.	.	.	.	.
.	.	sum	.	.	.	.	.
.	.	_	.	.	.	.	.
.	.	mer	.	.	.	.	.
.	.	.	.	.	.	.	.
.	.	.	.	.	.	.	.
.	.	of	.	.	.	.	.
.	.	his	.	.	.	.	.
=6	=6	=6	=6	=6	=6	=6	=6
2ii7	F#:min7	twen-	.	15.39	.	voice	2F# 2a 2cc# 2ee
.	.	-ty	.	.	.	.	.
.	.	se-	.	.	.	.	.
.	.	-venth	.	.	.	.	.
.	.	year	.	.	.	.	.
4-VII	D:maj	_	.	16.898	.	voice	4D 4f# 4a
.	.	.	.	.	.	.	.
4V	B:sus4(b7)	.	.	17.651	.	voice	4B 4dd# 4ff#
.	.	co-	.	.	.	.	.
.	.	-ming	.	.	.	.	.
=7	=7	=7	=7	=7	=7	=7	=7
1I	E:maj	home	.	18.405	.	voice	1E 1g# 1b
.	.	to	.	.	.	.	.
.	.	a	.	.	.	.	.
.	.	place	.	.	.	.	.
.	.	he'd	.	.	.	.	.
.	.	ne-	.	.	.	.	.
.	.	-ver	.	.	.	.	.
=8	=8	=8	=8	=8	=8	=8	=8
2ii7	F#:min7	been	.	21.42	.	voice	2F# 2a 2cc# 2ee
.	.	be-	.	.	.	.	.
.	.	-fore	A	.	.	.	.
.	.	_	.	.	.	.	.
.	.	.	.	.	.	.	.
4IV	A:maj	.	.	22.928	.	voice	4A 4cc# 4ee
4V	B:sus4(b7)	.	.	23.682	.	voice	4B 4dd# 4ff#
.	.	He	.	.	.	.	.
.	.	left	.	.	.	.	.
=9	=9	=9	=9	=9	=9	=9	=9
1I	E:maj	yes-	.	24.435	newline	voice	1E 1g# 1b
.	.	-ter-	.	.	.	.	.
.	.	-day	.	.	.	.	.
.	.	_	.	.	.	.	.
.	.	be-	.	.	.	.	.
.	.	-hind	.	.	.	.	.
.	.	_	.	.	.	.	.
.	.	him,	.	.	.	.	.
.	.	_	.	.	.	.	.
.	.	you	.	.	.	.	.
.	.	might	.	.	.	.	.
=10	=10	=10	=10	=10	=10	=10	=10
2ii7	F#:min7	say	.	27.407	.	voice	2F# 2a 2cc# 2ee
.	.	he	.	.	.	.	.
.	.	was	.	.	.	.	.
.	.	born	.	.	.	.	.
.	.	a-	.	.	.	.	.
.	.	-gain	.	.	.	.	.
4-VII	D:maj	.	.	28.893	.	voice	4D 4f# 4a
4V	B:sus4(b7)	.	.	29.636	.	voice	4B 4dd# 4ff#
.	.	you	.	.	.	.	.
=11	=11	=11	=11	=11	=11	=11	=11
1I	E:maj	might	.	30.379	.	voice	1E 1g# 1b
.	.	say	.	.	.	.	.
.	.	he	.	.	.	.	.
.	.	found	.	.	.	.	.
.	.	a	.	.	.	.	.
.	.	key	.	.	.	.	.
.	.	_	.	.	.	.	.
.	.	for	.	.	.	.	.
.	.	ev	.	.	.	.	.
.	.	_	.	.	.	.	.
.	.	'ry	.	.	.	.	.
.	.	door	A	.	.	.	.
=12	=12	=12	=12	=12	=12	=12	=12
2ii7	F#:min7	_	.	33.35	.	voice	2F# 2a 2cc# 2ee
.	.	.	.	.	.	.	.
4IV	A:maj	.	.	34.836	.	voice	4A 4cc# 4ee
4V	B:sus4(b7)	.	.	35.579	.	voice	4B 4dd# 4ff#
.	.	When	.	.	.	.	.
.	.	he	.	.	.	.	.
=13	=13	=13	=13	=13	=13	=13	=13
1I	E:maj	first	.	36.322	newline	voice	1E 1g# 1b
.	.	came	.	.	.	.	.
.	.	to	.	.	.	.	.
.	.	the	.	.	.	.	.
.	.	moun	.	.	.	.	.
.	.	_	.	.	.	.	.
.	.	tains	.	.	.	.	.
.	.	.	.	.	.	.	.
.	.	.	.	.	.	.	.
.	.	his	.	.	.	.	.
=14	=14	=14	=14	=14	=14	=14	=14
2ii7	F#:min7	life	.	39.31	.	voice	2F# 2a 2cc# 2ee
.	.	_	.	.	.	.	.
.	.	was	.	.	.	.	.
.	.	far	.	.	.	.	.
.	.	a-	.	.	.	.	.
.	.	-way	.	.	.	.	.
4-VII	D:maj	_	.	40.804	.	voice	4D 4f# 4a
.	.	.	.	.	.	.	.
.	.	_	.	.	.	.	.
4V	B:sus4(b7)	on	.	41.551	.	voice	4B 4dd# 4ff#
.	.	the	.	.	.	.	.
.	.	road	.	.	.	.	.
=15	=15	=15	=15	=15	=15	=15	=15
1I	E:maj	_	.	42.298	.	voice	1E 1g# 1b
.	.	_	.	.	.	.	.
.	.	and	.	.	.	.	.
.	.	han-	.	.	.	.	.
.	.	-ging	.	.	.	.	.
.	.	by	.	.	.	.	.
.	.	a	.	.	.	.	.
.	.	song	B	.	.	.	.
=16	=16	=16	=16	=16	=16	=16	=16
2ii7	F#:min7	_	.	45.287	.	voice	2F# 2a 2cc# 2ee
.	.	.	.	.	.	.	.
4IV	A:maj	.	.	46.781	.	voice	4A 4cc# 4ee
4V	B:sus4(b7)	.	.	47.528	.	voice	4B 4dd# 4ff#
.	.	But	.	.	.	.	.
.	.	the	.	.	.	.	.
=17	=17	=17	=17	=17	=17	=17	=17
1I	E:maj	string's	.	48.275	newline	voice	1E 1g# 1b
.	.	al-	.	.	.	.	.
.	.	-rea-	.	.	.	.	.
.	.	-dy	.	.	.	.	.
.	.	bro	.	.	.	.	.
.	.	_	.	.	.	.	.
.	.	_	.	.	.	.	.
.	.	ken	.	.	.	.	.
.	.	_	.	.	.	.	.
.	.	.	.	.	.	.	.
.	.	and	.	.	.	.	.
.	.	he	.	.	.	.	.
=18	=18	=18	=18	=18	=18	=18	=18
2ii7	F#:min7	does-	.	51.249	.	voice	2F# 2a 2cc# 2ee
.	.	-n't	.	.	.	.	.
.	.	r-	.	.	.	.	.
.	.	-real-	.	.	.	.	.
.	.	-ly	.	.	.	.	.
.	.	care	.	.	.	.	.
4-VII	D:maj	.	.	52.736	.	voice	4D 4f# 4a
4V	B:sus4(b7)	.	.	53.479	.	voice	4B 4dd# 4ff#
.	.	it	.	.	.	.	.
.	.	keeps	.	.	.	.	.
=19	=19	=19	=19	=19	=19	=19	=19
1I	E:maj	chan-	.	54.223	.	voice	1E 1g# 1b
.	.	-ging	.	.	.	.	.
.	.	fast	.	.	.	.	.
.	.	.	.	.	.	.	.
.	.	and	.	.	.	.	.
.	.	it	.	.	.	.	.
.	.	don't	.	.	.	.	.
.	.	last	.	.	.	.	.
.	.	for	.	.	.	.	.
.	.	long	B	.	.	.	.
=20	=20	=20	=20	=20	=20	=20	=20
2ii7	F#:min7	_	.	57.196	.	voice	2F# 2a 2cc# 2ee
.	.	.	.	.	.	.	.
4IV	A:maj	.	.	58.683	.	voice	4.A 4.cc# 4.ee
4V	B:sus4(b7)	.	.	59.427	.	voice	8B 8dd# 8ff#
.	.	But	.	.	.	.	.
.	.	the	.	.	.	.	.
=21	=21	=21	=21	=21	=21	=21	=21
*>Letter>B	*>Letter>B	*>Letter>B	*>Letter>B	*>Letter>B	*>Letter>B	*>Letter>B	*>Letter>B
*>Label>Chorus	*>Label>Chorus	*>Label>Chorus	*>Label>Chorus	*>Label>Chorus	*>Label>Chorus	*>Label>Chorus	*>Label>Chorus
.	.	_	.	.	.	.	.
2IV	A:maj	Co-	.	60.17	newline	voice	2A 2cc# 2ee
.	.	-lo-	.	.	.	.	.
.	.	-ra	.	.	.	.	.
.	.	_	.	.	.	.	.
.	.	do	.	.	.	.	.
.	.	_	.	.	.	.	.
2V	B:maj	Ro-	.	61.636	.	voice	2B 2dd# 2ff#
.	.	-cky	.	.	.	.	.
.	.	Moun	.	.	.	.	.
.	.	_	.	.	.	.	.
.	.	tain	.	.	.	.	.
.	.	high	C	.	.	.	.
=22	=22	=22	=22	=22	=22	=22	=22
1I	E:maj	_	.	63.103	.	voice	1E 1g# 1b
.	.	.	.	.	.	.	.
.	.	.	.	.	.	.	.
.	.	_	.	.	.	.	.
.	.	I've	.	.	.	.	.
=23	=23	=23	=23	=23	=23	=23	=23
2IV	A:maj	seen	.	66.035	.	voice	2A 2cc# 2ee
.	.	it	.	.	.	.	.
.	.	rai-	.	.	.	.	.
.	.	-ning	.	.	.	.	.
2V	B:maj	fi-	.	67.502	.	voice	2B 2dd# 2ff#
.	.	-re	.	.	.	.	.
.	.	in	.	.	.	.	.
.	.	_	.	.	.	.	.
.	.	the	.	.	.	.	.
.	.	sky	C	.	.	.	.
=24	=24	=24	=24	=24	=24	=24	=24
1I	E:maj	_	.	68.968	.	voice	1E 1g# 1b
.	.	.	.	.	.	.	.
.	.	.	.	.	.	.	.
.	.	The	.	.	.	.	.
=25	=25	=25	=25	=25	=25	=25	=25
2IV	A:maj	sha-	.	71.901	newline	voice	2A 2cc# 2ee
.	.	-dow	.	.	.	.	.
.	.	from	.	.	.	.	.
.	.	the	.	.	.	.	.
.	.	star	.	.	.	.	.
2V	B:maj	_	.	73.394	.	voice	2B 2dd# 2ff#
.	.	_	.	.	.	.	.
.	.	light	C	.	.	.	.
.	.	.	.	.	.	.	.
.	.	is	.	.	.	.	.
.	.	sof	.	.	.	.	.
=26	=26	=26	=26	=26	=26	=26	=26
*M2/4	*M2/4	*	*	*M2/4	*M2/4	*M2/4	*
2I	E:maj	_	.	74.888	.	voice	2E 2g# 2b
.	.	ter	.	.	.	.	.
.	.	than	.	.	.	.	.
.	.	a	.	.	.	.	.
.	.	lul-	.	.	.	.	.
.	.	-la-	.	.	.	.	.
.	.	_	.	.	.	.	.
.	.	-by	C	.	.	.	.
=27	=27	=27	=27	=27	=27	=27	=27
*M4/4	*M4/4	*	*	*M4/4	*M4/4	*M4/4	*
1IV	A:maj	_	.	76.381	.	voice	1A 1cc# 1ee
=28	=28	=28	=28	=28	=28	=28	=28
2.IV	A:maj	_	.	79.369	.	voice	2.A 2.cc# 2.ee
.	.	.	.	.	.	.	.
.	.	Ro-	.	.	.	.	.
.	.	-cky	.	.	.	.	.
4V	B:sus4(b7)	Moun-	.	81.609	.	voice	4B 4dd# 4ff#
.	.	-tain	.	.	.	.	.
.	.	High	C	.	.	.	.
=29	=29	=29	=29	=29	=29	=29	=29
*>Letter>A2	*>Letter>A2	*>Letter>A2	*>Letter>A2	*>Letter>A2	*>Letter>A2	*>Letter>A2	*>Letter>A2
*>Label>Interlude	*>Label>Interlude	*>Label>Interlude	*>Label>Interlude	*>Label>Interlude	*>Label>Interlude	*>Label>Interlude	*>Label>Interlude
1I	E:maj	_	.	82.356	newline	voice	1E 1g# 1b
.	.	_	.	.	.	.	.
.	.	.	.	.	.	.	.
=30	=30	=30	=30	=30	=30	=30	=30
2ii7	F#:min7	.	.	85.293	.	voice	2F# 2a 2cc# 2ee
4IV	A:maj	.	.	86.762	.	voice	4A 4cc# 4ee
.	.	Ro-	.	.	.	.	.
.	.	-cky	.	.	.	.	.
4V	B:sus4(b7)	Moun-	.	87.497	.	voice	4B 4dd# 4ff#
.	.	-tain	.	.	.	.	.
=31	=31	=31	=31	=31	=31	=31	=31
1I	E:maj	High	C	88.231	.	voice	1E 1g# 1b
.	.	_	.	.	.	.	.
.	.	.	.	.	.	.	.
.	.	.	.	.	.	.	.
=32	=32	=32	=32	=32	=32	=32	=32
2ii7	F#:min7	.	.	91.169	.	voice	2F# 2a 2cc# 2ee
4IV	A:maj	.	.	92.638	.	voice	4A 4cc# 4ee
4V	B:sus4(b7)	.	.	93.373	.	voice	4B 4dd# 4ff#
.	.	He	.	.	.	.	.
.	.	c-	.	.	.	.	.
=33	=33	=33	=33	=33	=33	=33	=33
*>Letter>A	*>Letter>A	*>Letter>A	*>Letter>A	*>Letter>A	*>Letter>A	*>Letter>A	*>Letter>A
*>Label>Verse	*>Label>Verse	*>Label>Verse	*>Label>Verse	*>Label>Verse	*>Label>Verse	*>Label>Verse	*>Label>Verse
1I	E:maj	-limbed	.	94.107	newline	voice	1E 1g# 1b
.	.	Ca-	.	.	.	.	.
.	.	-the-	.	.	.	.	.
.	.	-dral	.	.	.	.	.
.	.	Moun	.	.	.	.	.
.	.	_	.	.	.	.	.
.	.	tains	.	.	.	.	.
.	.	.	.	.	.	.	.
.	.	.	.	.	.	.	.
.	.	he	.	.	.	.	.
.	.	saw	.	.	.	.	.
=34	=34	=34	=34	=34	=34	=34	=34
2ii7	F#:min7	sil-	.	97.029	.	voice	2F# 2a 2cc# 2ee
.	.	-ver	.	.	.	.	.
.	.	clouds	.	.	.	.	.
.	.	_	.	.	.	.	.
.	.	be-	.	.	.	.	.
.	.	-low	.	.	.	.	.
4-VII	D:maj	_	.	98.49	.	voice	4D 4f# 4a
.	.	.	.	.	.	.	.
4V	B:sus4(b7)	.	.	99.221	.	voice	4B 4dd# 4ff#
.	.	saw	.	.	.	.	.
=35	=35	=35	=35	=35	=35	=35	=35
1I	E:maj	ev-	.	99.951	.	voice	1E 1g# 1b
.	.	-'ry-	.	.	.	.	.
.	.	-thing	.	.	.	.	.
.	.	_	.	.	.	.	.
.	.	as	.	.	.	.	.
.	.	far	.	.	.	.	.
.	.	as	.	.	.	.	.
.	.	you	.	.	.	.	.
.	.	can	.	.	.	.	.
=36	=36	=36	=36	=36	=36	=36	=36
2ii7	F#:min7	see	D	102.874	.	voice	2F# 2a 2cc# 2ee
.	.	.	.	.	.	.	.
4IV	A:maj	.	.	104.335	.	voice	4A 4cc# 4ee
4V	B:sus4(b7)	.	.	105.065	.	voice	4B 4dd# 4ff#
.	.	And	.	.	.	.	.
.	.	they	.	.	.	.	.
=37	=37	=37	=37	=37	=37	=37	=37
1I	E:maj	say	.	105.796	newline	voice	1E 1g# 1b
.	.	that	.	.	.	.	.
.	.	he	.	.	.	.	.
.	.	_	.	.	.	.	.
.	.	got	.	.	.	.	.
.	.	_	.	.	.	.	.
.	.	cra	.	.	.	.	.
.	.	_	.	.	.	.	.
.	.	zy	.	.	.	.	.
.	.	once	.	.	.	.	.
.	.	.	.	.	.	.	.
=38	=38	=38	=38	=38	=38	=38	=38
2ii7	F#:min7	tried	.	108.711	.	voice	2F# 2a 2cc# 2ee
.	.	to	.	.	.	.	.
.	.	touch	.	.	.	.	.
.	.	_	.	.	.	.	.
.	.	the	.	.	.	.	.
.	.	sun	.	.	.	.	.
4-VII	D:maj	.	.	110.169	.	voice	4D 4f# 4a
4V	B:sus4(b7)	.	.	110.898	.	voice	4B 4dd# 4ff#
.	.	and	.	.	.	.	.
.	.	he	.	.	.	.	.
=39	=39	=39	=39	=39	=39	=39	=39
1I	E:maj	lost	.	111.627	.	voice	1E 1g# 1b
.	.	a	.	.	.	.	.
.	.	friend,	.	.	.	.	.
.	.	_	.	.	.	.	.
.	.	but	.	.	.	.	.
.	.	kept	.	.	.	.	.
.	.	the	.	.	.	.	.
.	.	me-	.	.	.	.	.
.	.	-mo-	.	.	.	.	.
.	.	-ry	D	.	.	.	.
=40	=40	=40	=40	=40	=40	=40	=40
2ii7	F#:min7	_	.	114.543	.	voice	2F# 2a 2cc# 2ee
4IV	A:maj	.	.	116	.	voice	4A 4cc# 4ee
4V	B:sus4(b7)	.	.	116.729	.	voice	4B 4dd# 4ff#
.	.	Now	.	.	.	.	.
.	.	he	.	.	.	.	.
=41	=41	=41	=41	=41	=41	=41	=41
1I	E:maj	walks	.	117.458	newline	voice	1E 1g# 1b
.	.	in	.	.	.	.	.
.	.	qui-	.	.	.	.	.
.	.	-et	.	.	.	.	.
.	.	so-	.	.	.	.	.
.	.	-li-	.	.	.	.	.
.	.	-tude,	.	.	.	.	.
.	.	_	.	.	.	.	.
.	.	the	.	.	.	.	.
.	.	fo	.	.	.	.	.
=42	=42	=42	=42	=42	=42	=42	=42
2ii7	F#:min7	_	.	120.403	.	voice	2F# 2a 2cc# 2ee
.	.	rests	.	.	.	.	.
.	.	and	.	.	.	.	.
.	.	the	.	.	.	.	.
.	.	streams	.	.	.	.	.
4-VII	D:maj	.	.	121.876	.	voice	4D 4f# 4a
4V	B:sus4(b7)	see-	.	122.612	.	voice	4B 4dd# 4ff#
.	.	-king	.	.	.	.	.
=43	=43	=43	=43	=43	=43	=43	=43
1I	E:maj	grace	.	123.348	.	voice	1E 1g# 1b
.	.	.	.	.	.	.	.
.	.	in	.	.	.	.	.
.	.	ev	.	.	.	.	.
.	.	_	.	.	.	.	.
.	.	'ry	.	.	.	.	.
.	.	step	.	.	.	.	.
.	.	_	.	.	.	.	.
.	.	he	.	.	.	.	.
.	.	takes	E	.	.	.	.
=44	=44	=44	=44	=44	=44	=44	=44
2ii7	F#:min7	.	.	126.293	.	voice	2F# 2a 2cc# 2ee
4IV	A:maj	.	.	127.766	.	voice	4A 4cc# 4ee
4V	B:sus4(b7)	.	.	128.502	.	voice	4B 4dd# 4ff#
.	.	His	.	.	.	.	.
=45	=45	=45	=45	=45	=45	=45	=45
1I	E:maj	sight	.	129.238	newline	voice	1E 1g# 1b
.	.	has	.	.	.	.	.
.	.	turned	.	.	.	.	.
.	.	in-	.	.	.	.	.
.	.	-side	.	.	.	.	.
.	.	_	.	.	.	.	.
.	.	him-	.	.	.	.	.
.	.	-self,	.	.	.	.	.
.	.	to	.	.	.	.	.
=46	=46	=46	=46	=46	=46	=46	=46
2ii7	F#:min7	try	.	132.171	.	voice	2F# 2a 2cc# 2ee
.	.	and	.	.	.	.	.
.	.	un-	.	.	.	.	.
.	.	-der-	.	.	.	.	.
.	.	-stand	.	.	.	.	.
4-VII	D:maj	.	.	133.637	.	voice	4D 4f# 4a
4V	B:sus4(b7)	.	.	134.37	.	voice	4B 4dd# 4ff#
.	.	the	.	.	.	.	.
.	.	se-	.	.	.	.	.
=47	=47	=47	=47	=47	=47	=47	=47
1I	E:maj	-re-	.	135.104	.	voice	1E 1g# 1b
.	.	-ni-	.	.	.	.	.
.	.	-ty	.	.	.	.	.
.	.	of	.	.	.	.	.
.	.	a	.	.	.	.	.
.	.	clear	.	.	.	.	.
.	.	blue	.	.	.	.	.
.	.	moun	.	.	.	.	.
.	.	_	.	.	.	.	.
.	.	tain	.	.	.	.	.
=48	=48	=48	=48	=48	=48	=48	=48
2ii7	F#:min7	lake	E	138.036	.	voice	2F# 2a 2cc# 2ee
4IV	A:maj	.	.	139.503	.	voice	4A 4cc# 4ee
4V	B:sus4(b7)	.	.	140.236	.	voice	4B 4dd# 4ff#
.	.	The	.	.	.	.	.
=49	=49	=49	=49	=49	=49	=49	=49
*>Letter>B	*>Letter>B	*>Letter>B	*>Letter>B	*>Letter>B	*>Letter>B	*>Letter>B	*>Letter>B
*>Label>Chorus	*>Label>Chorus	*>Label>Chorus	*>Label>Chorus	*>Label>Chorus	*>Label>Chorus	*>Label>Chorus	*>Label>Chorus
.	.	_	.	.	.	.	.
2IV	A:maj	Co-	.	140.969	newline	voice	2A 2cc# 2ee
.	.	-lo-	.	.	.	.	.
.	.	-ra	.	.	.	.	.
.	.	_	.	.	.	.	.
.	.	do	.	.	.	.	.
.	.	_	.	.	.	.	.
2V	B:maj	Ro-	.	142.424	.	voice	2B 2dd# 2ff#
.	.	-cky	.	.	.	.	.
.	.	Moun	.	.	.	.	.
.	.	_	.	.	.	.	.
.	.	tain	.	.	.	.	.
.	.	_	.	.	.	.	.
.	.	_	.	.	.	.	.
.	.	High	C	.	.	.	.
=50	=50	=50	=50	=50	=50	=50	=50
1I	E:maj	_	.	143.878	.	voice	1E 1g# 1b
.	.	_	.	.	.	.	.
.	.	.	.	.	.	.	.
.	.	.	.	.	.	.	.
.	.	I've	.	.	.	.	.
=51	=51	=51	=51	=51	=51	=51	=51
2IV	A:maj	seen	.	146.788	.	voice	2A 2cc# 2ee
.	.	it	.	.	.	.	.
.	.	_	.	.	.	.	.
.	.	rain-	.	.	.	.	.
.	.	-ing	.	.	.	.	.
2V	B:maj	fi-	.	148.243	.	voice	2B 2dd# 2ff#
.	.	-re	.	.	.	.	.
.	.	in	.	.	.	.	.
.	.	the	.	.	.	.	.
.	.	sky	C	.	.	.	.
=52	=52	=52	=52	=52	=52	=52	=52
1I	E:maj	_	.	149.698	.	voice	1E 1g# 1b
.	.	.	.	.	.	.	.
.	.	.	.	.	.	.	.
.	.	He	.	.	.	.	.
=53	=53	=53	=53	=53	=53	=53	=53
2IV	A:maj	talked	.	152.607	newline	voice	2A 2cc# 2ee
.	.	to	.	.	.	.	.
.	.	God	.	.	.	.	.
.	.	_	.	.	.	.	.
.	.	.	.	.	.	.	.
.	.	and	.	.	.	.	.
2V	B:maj	lis-	.	154.076	.	voice	2B 2dd# 2ff#
.	.	-tened	.	.	.	.	.
.	.	to	.	.	.	.	.
.	.	the	.	.	.	.	.
.	.	ca	.	.	.	.	.
=54	=54	=54	=54	=54	=54	=54	=54
*M2/4	*M2/4	*	*	*M2/4	*M2/4	*M2/4	*
2I	E:maj	_	.	155.546	.	voice	2E 2g# 2b
.	.	su-	.	.	.	.	.
.	.	-al	.	.	.	.	.
.	.	re-	.	.	.	.	.
=55	=55	=55	=55	=55	=55	=55	=55
*M4/4	*M4/4	*	*	*M4/4	*M4/4	*M4/4	*
1IV	A:maj	-ply	C	157.015	.	voice	1A 1cc# 1ee
=56	=56	=56	=56	=56	=56	=56	=56
2.IV	A:maj	_	.	159.953	.	voice	2.A 2.cc# 2.ee
.	.	.	.	.	.	.	.
.	.	Ro-	.	.	.	.	.
.	.	-cky	.	.	.	.	.
4V	B:sus4(b7)	Moun-	.	162.157	.	voice	4B 4dd# 4ff#
.	.	-tain	.	.	.	.	.
.	.	High	C	.	.	.	.
=57	=57	=57	=57	=57	=57	=57	=57
*>Letter>A2	*>Letter>A2	*>Letter>A2	*>Letter>A2	*>Letter>A2	*>Letter>A2	*>Letter>A2	*>Letter>A2
*>Label>Interlude	*>Label>Interlude	*>Label>Interlude	*>Label>Interlude	*>Label>Interlude	*>Label>Interlude	*>Label>Interlude	*>Label>Interlude
1I	E:maj	_	.	162.892	newline	voice	1E 1g# 1b
.	.	.	.	.	.	.	.
=58	=58	=58	=58	=58	=58	=58	=58
2ii7	F#:min7	.	.	165.82	.	voice	2F# 2a 2cc# 2ee
4IV	A:maj	.	.	167.285	.	voice	4A 4cc# 4ee
.	.	Ro-	.	.	.	.	.
.	.	-cky	.	.	.	.	.
4V	B:sus4(b7)	Moun-	.	168.017	.	voice	4B 4dd# 4ff#
.	.	-tain	.	.	.	.	.
=59	=59	=59	=59	=59	=59	=59	=59
1I	E:maj	High	C	168.749	.	voice	1E 1g# 1b
.	.	_	.	.	.	.	.
.	.	_	.	.	.	.	.
.	.	.	.	.	.	.	.
.	.	.	.	.	.	.	.
=60	=60	=60	=60	=60	=60	=60	=60
2ii7	F#:min7	.	.	171.678	.	voice	2F# 2a 2cc# 2ee
4IV	A:maj	.	.	173.142	.	voice	4A 4cc# 4ee
4V	B:sus4(b7)	.	.	173.874	.	voice	4B 4dd# 4ff#
.	.	Now	.	.	.	.	.
.	.	his	.	.	.	.	.
=61	=61	=61	=61	=61	=61	=61	=61
*>Letter>A	*>Letter>A	*>Letter>A	*>Letter>A	*>Letter>A	*>Letter>A	*>Letter>A	*>Letter>A
*>Label>Verse	*>Label>Verse	*>Label>Verse	*>Label>Verse	*>Label>Verse	*>Label>Verse	*>Label>Verse	*>Label>Verse
1I	E:maj	life	.	174.606	newline	voice	1E 1g# 1b
.	.	is	.	.	.	.	.
.	.	full	.	.	.	.	.
.	.	of	.	.	.	.	.
.	.	won-	.	.	.	.	.
.	.	-der	.	.	.	.	.
.	.	.	.	.	.	.	.
.	.	.	.	.	.	.	.
.	.	but	.	.	.	.	.
.	.	his	.	.	.	.	.
=62	=62	=62	=62	=62	=62	=62	=62
2ii7	F#:min7	heart	.	177.558	.	voice	2F# 2a 2cc# 2ee
.	.	still	.	.	.	.	.
.	.	knows	.	.	.	.	.
.	.	_	.	.	.	.	.
.	.	some	.	.	.	.	.
.	.	fear	.	.	.	.	.
4-VII	D:maj	_	.	179.033	.	voice	4D 4f# 4a
.	.	.	.	.	.	.	.
4V	B:sus4(b7)	.	.	179.771	.	voice	4B 4dd# 4ff#
.	.	of	.	.	.	.	.
.	.	a	.	.	.	.	.
=63	=63	=63	=63	=63	=63	=63	=63
1I	E:maj	sim-	.	180.509	.	voice	1E 1g# 1b
.	.	-ple	.	.	.	.	.
.	.	thing	.	.	.	.	.
.	.	_	.	.	.	.	.
.	.	he	.	.	.	.	.
.	.	can-	.	.	.	.	.
.	.	-not	.	.	.	.	.
.	.	com	.	.	.	.	.
.	.	_	.	.	.	.	.
.	.	pre-	.	.	.	.	.
.	.	-hend	F	.	.	.	.
=64	=64	=64	=64	=64	=64	=64	=64
2ii7	F#:min7	.	.	183.46	.	voice	2F# 2a 2cc# 2ee
4IV	A:maj	.	.	184.936	.	voice	4A 4cc# 4ee
4V	B:sus4(b7)	.	.	185.674	.	voice	4B 4dd# 4ff#
.	.	Why	.	.	.	.	.
.	.	they	.	.	.	.	.
=65	=65	=65	=65	=65	=65	=65	=65
1I	E:maj	try	.	186.412	newline	voice	1E 1g# 1b
.	.	to	.	.	.	.	.
.	.	tear	.	.	.	.	.
.	.	_	.	.	.	.	.
.	.	the	.	.	.	.	.
.	.	moun	.	.	.	.	.
.	.	_	.	.	.	.	.
.	.	tains	.	.	.	.	.
.	.	down,	.	.	.	.	.
.	.	_	.	.	.	.	.
.	.	to	.	.	.	.	.
=66	=66	=66	=66	=66	=66	=66	=66
2ii7	F#:min7	bring	.	189.359	.	voice	2F# 2a 2cc# 2ee
.	.	in	.	.	.	.	.
.	.	a	.	.	.	.	.
.	.	cou-	.	.	.	.	.
.	.	-ple	.	.	.	.	.
.	.	more	.	.	.	.	.
4-VII	D:maj	.	.	190.832	.	voice	4D 4f# 4a
4V	B:sus4(b7)	.	.	191.569	.	voice	4B 4dd# 4ff#
.	.	more	.	.	.	.	.
=67	=67	=67	=67	=67	=67	=67	=67
1I	E:maj	peo-	.	192.306	.	voice	1E 1g# 1b
.	.	-ple	.	.	.	.	.
.	.	.	.	.	.	.	.
.	.	more	.	.	.	.	.
.	.	scars	.	.	.	.	.
.	.	u-	.	.	.	.	.
.	.	-pon	.	.	.	.	.
.	.	_	.	.	.	.	.
.	.	the	.	.	.	.	.
.	.	land	H	.	.	.	.
=68	=68	=68	=68	=68	=68	=68	=68
2ii7	F#:min7	_	.	195.253	.	voice	2F# 2a 2cc# 2ee
.	.	.	.	.	.	.	.
4IV	A:maj	.	.	196.726	.	voice	4A 4cc# 4ee
4V	B:sus4(b7)	.	.	197.463	.	voice	4B 4dd# 4ff#
.	.	And	.	.	.	.	.
.	.	the	.	.	.	.	.
=69	=69	=69	=69	=69	=69	=69	=69
*>Letter>B2	*>Letter>B2	*>Letter>B2	*>Letter>B2	*>Letter>B2	*>Letter>B2	*>Letter>B2	*>Letter>B2
*>Label>Chorus	*>Label>Chorus	*>Label>Chorus	*>Label>Chorus	*>Label>Chorus	*>Label>Chorus	*>Label>Chorus	*>Label>Chorus
.	.	_	.	.	.	.	.
2IV	A:maj	Co-	.	198.2	newline	voice	2A 2cc# 2ee
.	.	-lo-	.	.	.	.	.
.	.	-ra	.	.	.	.	.
.	.	_	.	.	.	.	.
.	.	do	.	.	.	.	.
2V	B:maj	Ro-	.	199.669	.	voice	2B 2dd# 2ff#
.	.	-cky	.	.	.	.	.
.	.	Moun	.	.	.	.	.
.	.	_	.	.	.	.	.
.	.	tain	.	.	.	.	.
.	.	_	.	.	.	.	.
.	.	High	C	.	.	.	.
=70	=70	=70	=70	=70	=70	=70	=70
1I	E:maj	_	.	201.138	.	voice	1E 1g# 1b
.	.	.	.	.	.	.	.
.	.	.	.	.	.	.	.
.	.	I've	.	.	.	.	.
=71	=71	=71	=71	=71	=71	=71	=71
2IV	A:maj	seen	.	204.075	.	voice	2A 2cc# 2ee
.	.	it	.	.	.	.	.
.	.	_	.	.	.	.	.
.	.	rain-	.	.	.	.	.
.	.	-ing	.	.	.	.	.
2V	B:maj	fi-	.	205.544	.	voice	2B 2dd# 2ff#
.	.	-re	.	.	.	.	.
.	.	in	.	.	.	.	.
.	.	the	.	.	.	.	.
.	.	sky	C	.	.	.	.
=72	=72	=72	=72	=72	=72	=72	=72
1I	E:maj	_	.	207.013	.	voice	1E 1g# 1b
.	.	.	.	.	.	.	.
.	.	.	.	.	.	.	.
.	.	.	.	.	.	.	.
.	.	He	.	.	.	.	.
=73	=73	=73	=73	=73	=73	=73	=73
2IV	A:maj	knows	.	209.951	newline	voice	2A 2cc# 2ee
.	.	he'd	.	.	.	.	.
.	.	be	.	.	.	.	.
.	.	_	.	.	.	.	.
.	.	a	.	.	.	.	.
.	.	poor	.	.	.	.	.
2V	B:maj	_	.	211.457	.	voice	2B 2dd# 2ff#
.	.	er	.	.	.	.	.
.	.	man	.	.	.	.	.
.	.	.	.	.	.	.	.
.	.	if	.	.	.	.	.
.	.	he	.	.	.	.	.
=74	=74	=74	=74	=74	=74	=74	=74
*M2/4	*M2/4	*	*	*M2/4	*M2/4	*M2/4	*
2I	E:maj	ne-	.	212.962	.	voice	2E 2g# 2b
.	.	-ver	.	.	.	.	.
.	.	saw	.	.	.	.	.
.	.	an	.	.	.	.	.
.	.	ea-	.	.	.	.	.
.	.	-gle	.	.	.	.	.
=75	=75	=75	=75	=75	=75	=75	=75
*M4/4	*M4/4	*	*	*M4/4	*M4/4	*M4/4	*
1IV	A:maj	fly	C	214.467	.	voice	1A 1cc# 1ee
=76	=76	=76	=76	=76	=76	=76	=76
2.IV	A:maj	_	.	217.478	.	voice	2.A 2.cc# 2.ee
.	.	.	.	.	.	.	.
.	.	Ro-	.	.	.	.	.
.	.	-cky	.	.	.	.	.
4V	B:sus4(b7)	Moun-	.	219.736	.	voice	4B 4dd# 4ff#
.	.	-tain	.	.	.	.	.
.	.	High	C	.	.	.	.
=77	=77	=77	=77	=77	=77	=77	=77
1I	E:maj	_	.	220.489	newline	voice	1E 1g# 1b
.	.	.	.	.	.	.	.
.	.	It's	.	.	.	.	.
.	.	a	.	.	.	.	.
=78	=78	=78	=78	=78	=78	=78	=78
2IV	A:maj	Co-	.	223.194	newline	voice	2A 2cc# 2ee
.	.	-lo-	.	.	.	.	.
.	.	-ra	.	.	.	.	.
.	.	_	.	.	.	.	.
.	.	do	.	.	.	.	.
.	.	_	.	.	.	.	.
2V	B:maj	Ro	.	224.647	.	voice	2B 2dd# 2ff#
.	.	_	.	.	.	.	.
.	.	cky	.	.	.	.	.
.	.	Moun	.	.	.	.	.
.	.	_	.	.	.	.	.
.	.	tain	.	.	.	.	.
.	.	_	.	.	.	.	.
.	.	_	.	.	.	.	.
.	.	High	C	.	.	.	.
=79	=79	=79	=79	=79	=79	=79	=79
1I	E:maj	_	.	226.1	.	voice	1E 1g# 1b
.	.	_	.	.	.	.	.
.	.	.	.	.	.	.	.
.	.	.	.	.	.	.	.
.	.	I've	.	.	.	.	.
=80	=80	=80	=80	=80	=80	=80	=80
2IV	A:maj	seen	.	229.007	.	voice	2A 2cc# 2ee
.	.	it	.	.	.	.	.
.	.	rain-	.	.	.	.	.
.	.	-ing	.	.	.	.	.
.	.	fire	.	.	.	.	.
2V	B:maj	_	.	230.46	.	voice	2B 2dd# 2ff#
.	.	in	.	.	.	.	.
.	.	the	.	.	.	.	.
.	.	sky	C	.	.	.	.
=81	=81	=81	=81	=81	=81	=81	=81
1I	E:maj	_	.	231.914	.	voice	1E 1g# 1b
.	.	.	.	.	.	.	.
.	.	.	.	.	.	.	.
.	.	.	.	.	.	.	.
=82	=82	=82	=82	=82	=82	=82	=82
2IV	A:maj	Friends	.	234.82	newline	voice	2A 2cc# 2ee
.	.	a-	.	.	.	.	.
.	.	-round	.	.	.	.	.
.	.	_	.	.	.	.	.
.	.	the	.	.	.	.	.
.	.	camp	.	.	.	.	.
2V	B:maj	.	.	236.292	.	voice	2B 2dd# 2ff#
.	.	fire	.	.	.	.	.
.	.	_	.	.	.	.	.
.	.	_	.	.	.	.	.
.	.	_	.	.	.	.	.
.	.	.	.	.	.	.	.
=83	=83	=83	=83	=83	=83	=83	=83
*M2/4	*M2/4	*	*	*M2/4	*M2/4	*M2/4	*
2I	E:maj	Ev-	.	237.764	.	voice	2E 2g# 2b
.	.	-'ry-	.	.	.	.	.
.	.	_	.	.	.	.	.
.	.	-bo	.	.	.	.	.
.	.	_	.	.	.	.	.
.	.	dy's	.	.	.	.	.
=84	=84	=84	=84	=84	=84	=84	=84
*M4/4	*M4/4	*	*	*M4/4	*M4/4	*M4/4	*
1IV	A:maj	high	C	239.235	.	voice	1A 1cc# 1ee
.	.	_	.	.	.	.	.
.	.	_	.	.	.	.	.
=85	=85	=85	=85	=85	=85	=85	=85
2.IV	A:maj	_	.	242.178	.	voice	2.A 2.cc# 2.ee
.	.	.	.	.	.	.	.
.	.	.	.	.	.	.	.
.	.	Ro-	.	.	.	.	.
.	.	-cky	.	.	.	.	.
4V	B:sus4(b7)	Moun-	.	244.385	.	voice	4B 4dd# 4ff#
.	.	-tain	.	.	.	.	.
.	.	High	C	.	.	.	.
=86	=86	=86	=86	=86	=86	=86	=86
*>Letter>A2	*>Letter>A2	*>Letter>A2	*>Letter>A2	*>Letter>A2	*>Letter>A2	*>Letter>A2	*>Letter>A2
*>Label>Outro	*>Label>Outro	*>Label>Outro	*>Label>Outro	*>Label>Outro	*>Label>Outro	*>Label>Outro	*>Label>Outro
1I	E:maj	_	.	245.121	newline	voice	1E 1g# 1b
.	.	.	.	.	.	.	.
=87	=87	=87	=87	=87	=87	=87	=87
2ii7	F#:min7	.	.	248.039	.	voice	2F# 2a 2cc# 2ee
4IV	A:maj	.	.	249.498	.	voice	4A 4cc# 4ee
.	.	Ro-	.	.	.	.	.
.	.	-cky	.	.	.	.	.
4V	B:sus4(b7)	Moun-	.	250.227	.	voice	4B 4dd# 4ff#
.	.	-tain	.	.	.	.	.
.	.	High	C	.	.	.	.
=88	=88	=88	=88	=88	=88	=88	=88
1I	E:maj	_	.	250.956	.	voice	1E 1g# 1b
=89	=89	=89	=89	=89	=89	=89	=89
2ii7	F#:min7	_	.	253.874	.	voice	2F# 2a 2cc# 2ee
4IV	A:maj	.	.	255.333	.	voice	4A 4cc# 4ee
.	.	h	.	.	.	.	.
.	.	cky	.	.	.	.	.
4V	B:sus4(b7)	Moun	.	256.062	.	voice	4B 4dd# 4ff#
.	.	_	.	.	.	.	.
.	.	tain	.	.	.	.	.
.	.	High	C	.	.	.	.
=90	=90	=90	=90	=90	=90	=90	=90
1I	E:maj	_	.	256.792	newline	voice	1E 1g# 1b
.	.	.	.	.	.	.	.
=91	=91	=91	=91	=91	=91	=91	=91
2ii7	F#:min7	.	.	259.701	.	voice	2F# 2a 2cc# 2ee
4IV	A:maj	.	.	261.155	.	voice	4A 4cc# 4ee
.	.	Ro-	.	.	.	.	.
.	.	-cky	.	.	.	.	.
4V	B:sus4(b7)	Moun-	.	261.882	.	voice	4B 4dd# 4ff#
.	.	-tain	.	.	.	.	.
=92	=92	=92	=92	=92	=92	=92	=92
1I	E:maj	High	C	262.61	.	voice	1E 1g# 1b
.	.	_	.	.	.	.	.
=93	=93	=93	=93	=93	=93	=93	=93
2ii7	F#:min7	_	.	265.519	.	voice	2F# 2a 2cc# 2ee
4IV	A:maj	.	.	266.973	.	voice	4A 4cc# 4ee
.	.	Ro-	.	.	.	.	.
.	.	-cky	.	.	.	.	.
4V	B:sus4(b7)	Moun-	.	267.701	.	voice	4B 4dd# 4ff#
.	.	-tain	.	.	.	.	.
.	.	High	C	.	.	.	.
=94	=94	=94	=94	=94	=94	=94	=94
*>Label>>Fadeout	*>Label>>Fadeout	*>Label>>Fadeout	*>Label>>Fadeout	*>Label>>Fadeout	*>Label>>Fadeout	*>Label>>Fadeout	*>Label>>Fadeout
1I	E:maj	_	.	268.428	newline	voice	1E 1g# 1b
=95	=95	=95	=95	=95	=95	=95	=95
2ii7	F#:min7	.	.	271.335	.	voice	2F# 2a 2cc# 2ee
4IV	A:maj	.	.	272.789	.	voice	4A 4cc# 4ee
.	.	Ro-	.	.	.	.	.
.	.	-cky	.	.	.	.	.
4V	B:sus4(b7)	Moun-	.	273.516	.	voice	4B 4dd# 4ff#
.	.	-tain	.	.	.	.	.
=96	=96	=96	=96	=96	=96	=96	=96
1I	E:maj	High	C	274.242	.	voice	1E 1g# 1b
.	.	_	.	.	.	.	.
=97	=97	=97	=97	=97	=97	=97	=97
2ii7	F#:min7	_	.	277.15	.	voice	2F# 2a 2cc# 2ee
4IV	A:maj	.	.	278.603	.	voice	2A 2cc# 2ee
4V	B:sus4(b7)	.	.	279.33	.	voice	4B 4dd# 4ff#
1r;	N	.	.	281.147	.	r	1r;
1r;	N	.	.	286.188	.	r	1r;
*-	*-	*-	*-	*-	*-	*-	*-
!!!BillboardChartDate: 1972/12/23
!!!BillboardPeak: 9
!!!BillboardWeeksOnChart: 19
!!!COC: John Denver
!!!ENC: Nathaniel Condit-Schultz
!!!EST: Awating manual error checking and editing.
!!!OTL: Rocky Mountain High
!!!RDF**harte: Chris Harte's syntax, used by MIREX
!!!RDF**harmony: **recip + pitch class of root + harmonic quality
!!!RDF**leadinstrument: original McGill primary instrumentation annotation
!!!RDF**phrase: newline = linebreak in original McGill transcription
!!!RDF**timestamp: McGill audio timestamp in seconds
!!!RDT: 2017/01/12/
!!!SampleActualRank: 46
!!!SampleID#: 0720
!!!SampleTargetRank: 47
!!!MBID: 7fb61ff8-7a94-4278-a1d4-dc64becd1311
